/* XPM */
static char *code_clawdius[] = {
/* columns rows colors chars-per-pixel */
"256 256 95 2 ",
"   c None",
".  c #C76549",
"X  c #C6664A",
"o  c #C7664A",
"O  c #C7674A",
"+  c #C86549",
"@  c #C96549",
"#  c #C86649",
"$  c #C96649",
"%  c #C9664A",
"&  c #C8674A",
"*  c #C9674B",
"=  c #CA664A",
"-  c #CA674A",
";  c #CB674A",
":  c #CA674B",
">  c #CC674A",
",  c #CC674B",
"<  c #CA684B",
"1  c #CB684B",
"2  c #CD684A",
"3  c #CC684B",
"4  c #CD684B",
"5  c #CC694B",
"6  c #CE684B",
"7  c #CF684B",
"8  c #CE694B",
"9  c #CF694B",
"0  c #CD694C",
"q  c #CE694C",
"w  c #CF694C",
"e  c #CF6A4C",
"r  c #D0694B",
"t  c #D06A4B",
"y  c #D0694C",
"u  c #D06A4C",
"i  c #D16A4C",
"p  c #D26A4C",
"a  c #D36A4C",
"s  c #D26B4C",
"d  c #D36B4C",
"f  c #D26B4D",
"g  c #D36B4D",
"h  c #D46B4C",
"j  c #D46B4D",
"k  c #D56B4D",
"l  c #D56C4D",
"z  c #D66C4D",
"x  c #D76C4D",
"c  c #D66C4E",
"v  c #D76C4E",
"b  c #D76D4E",
"n  c #D86D4E",
"m  c #D96D4E",
"M  c #DA6D4E",
"N  c #D96E4E",
"B  c #DA6E4E",
"V  c #DB6E4E",
"C  c #DA6E4F",
"Z  c #DB6E4F",
"A  c #DB6F4F",
"S  c #DC6E4E",
"D  c #DC6F4F",
"F  c #DD6F4F",
"G  c #DE6F4F",
"H  c #DD704F",
"J  c #DF704F",
"K  c #DE7050",
"L  c #DF7050",
"P  c #DF7150",
"I  c #E0704F",
"U  c #E07050",
"Y  c #E17050",
"T  c #E07150",
"R  c #E17150",
"E  c #E17151",
"W  c #E27150",
"Q  c #E27251",
"!  c #E37251",
"~  c #E47351",
"^  c #E57352",
"/  c #E67352",
"(  c #E67452",
")  c #E77452",
"_  c #E87452",
"`  c #E87552",
"'  c #E87553",
"]  c #E97553",
"[  c #EA7553",
"{  c #EA7653",
"}  c #EB7653",
"|  c #EB7654",
" . c #EC7654",
".. c #EC7754",
"X. c #ED7754",
/* pixels */
"                                                                                                                                                                                                                                                                                                                                                                                                                                                                                                                                ",
"                                                                                                                                                                                                                                                                                                                                                                                                                                                                                                                                ",
"                                                                                                                                                                                                                                                                                                                                                                                                                                                                                                                                ",
"                                                                                                                                                                                                                                                                                                                                                                                                                                                                                                                                ",
"                                                                                                                                                                                                                                                                                                                                                                                                                                                                                                                                ",
"                                                                                                                                                                                                                                                                                                                                                                                                                                                                                                                                ",
"                                                                                                                                                                                                                                                                                                                                                                                                                                                                                                                                ",
"                                                                                                                                                                                                                                                                                                                                                                                                                                                                                                                                ",
"                                                                                                                                                                                                                                                                                                                                                                                                                                                                                                                                ",
"                                                                                                                                                                                                                                                                                                                                                                                                                                                                                                                                ",
"                                                                                                                                                                                                                                                                                                                                                                                                                                                                                                                                ",
"                                                                                                                                                                                                                                                                                                                                                                                                                                                                                                                                ",
"                                                                                                                                                                                                                                                                                                                                                                                                                                                                                                                                ",
"                                                                                                                                                                                                                                                                                                                                                                                                                                                                                                                                ",
"                                                                                                                                                                                                                                                                                                                                                                                                                                                                                                                                ",
"                                                                                                                                                                                                                                                                                                                                                                                                                                                                                                                                ",
"                                                                                                                                                                                                                                                                                                                                                                                                                                                                                                                                ",
"                                                                                                                                                                                                                                                                                                                                                                                                                                                                                                                                ",
"                                                                                                                                                                                                                                                                                                                                                                                                                                                                                                                                ",
"                                                                                                                                                                                                                                                                                                                                                                                                                                                                                                                                ",
"                                                                                                                                                                                                                                                                                                                                                                                                                                                                                                                                ",
"                                                                                                                                                                                                                                                                                                                                                                                                                                                                                                                                ",
"                                                                                                                                                                                                                                                                                                                                                                                                                                                                                                                                ",
"                                                                                                                                                                                                                                                                                                                                                                                                                                                                                                                                ",
"                                                                                                                                                                                                                                                                                                                                                                                                                                                                                                                                ",
"                                                                                                                                                                                                                                                                                                                                                                                                                                                                                                                                ",
"                                                                                                                                                                                                                                                                                                                                                                                                                                                                                                                                ",
"                                                                                                                                                                                                                                                                                                                                                                                                                                                                                                                                ",
"                                                                                                                                                                                                                                                                                                                                                                                                                                                                                                                                ",
"                                                                                                                                                                                                                                                                                                                                                                                                                                                                                                                                ",
"                                                                                                                                                                                                                                                                                                                                                                          W                     W W W W W W ^ ^ ^ ^ ^ ^ ^ ^ ^ ) ) ) ) ) ) ) ) } } }                                                                             ",
"                                                                                                                                                                                                                                                                                                                            V V V V V V F F F F F F F J L L L L L L L L L W W W W W W W W W W W W W W W W W ^ ^ ^ ^ ^ ^ ^ ^ ) ) ) ) ) ) ) ) ) } } } } }                                                                         ",
"                                                                                                                                                                                                                                                                                                                        V V V V V V V V F F F F F F F J L L L L L L L L L L W W W W W W W W W W W W W W W W ^ ^ ^ ^ ^ ^ ^ ^ ) ) ) ) ) ) ) ) ) } } } } }                                                                         ",
"                                                                                                                                                                                                                                                                                                                      V V V V V V V V V V F F F F F F J L L L L L L L L L W W W W W W W W W W W W W W W W W ^ ^ ^ ^ ^ ^ ^ ^ ) ) ) ) ) ) ) ) ) } } } } }                                                                         ",
"                                                                                                                                                                                                                                                                                                                    V V V V V V V V V V V F F F F F F J L L L L L L L L L L W W W W W W W W W W W W W W W W ^ ^ ^ ^ ^ ^ ^ ^ ^ ) ) ) ) ) ) ) ) } ) ) } }                                                                         ",
"                                                                                                                                                                                                                                                                                                                  V V V V V V V V V V V V F F F F F F J L L L L L L L L L L W W W W W W W W W W W W W W W W ^ ^ ^ ^ ^ ^ ^ ^ ^ ) ) ) ) ) ) ) ) } ) ) } }                                                                         ",
"                                                                                                                                                                                                                                                                                                                V V V V V V V V V V V V V F F F F F F J L L L L L L L L L L W W W W W W W W W W W W W W W W ^ ^ ^ ^ ^ ^ ^ ^ ^ ) ) ) ) ) ) ) ) } ) ) } }                                                                         ",
"                                                                                                                                                                                                                                                                                                              V V V V V V V V V V V V V V F F F F F F J J L L L L L L L L L W W W W W W W W W W W W W W W W ^ ^ ^ ^ ^ ^ ^ ^ ^ ) ) ) ) ) ) ) ) } ) ) } }                                                                         ",
"                                                                                                                                                                                                                                                                                                          V V V V V V V V V V V V V V V V F F F F F F J J L L L L L L L L L L L L W W W W W W W W W W W W ^ ^ ) ^ ^ ^ ^ ^ ^ ^ ) ) ) ) ) ) ) ) } ) ) } }                                                                         ",
"                                                                                                                                                                                                                                                                                                        V V V V V V V V V V V V V V V V V F F F F F F J J L L L L L L L L L L L L W W W W W W W W W W W W W ^ ) ^ ^ ^ ^ ^ ^ ^ ) ) ) ) ) ) ) ) } ) ) } }                                                                         ",
"                                                                                                                                                                                                                                                                                                      V V V V V V V V V V V V V V V V V F F F F F F F J J L L L L L L L L W W W L W W W W W W W W W W W W W ^ ^ ^ ^ ^ ^ ^ ^ ^ ) ) ) ) ) ) ) ) } } } } }                                                                         ",
"                                                                                                                                                                                                                                                                                                    z z V V V V V V V V V V V V V V V V F F F F F F F J J L L L L L L L L W W W L W W W W W W W W W W W W W ^ ^ ^ ^ ^ ^ ^ ^ ^ ) ) ) ) ) ) ) ) } } } } }                                                                         ",
"                                                                                                                                                                                                                                                                                                  z z z z V z z V V V V V V V V V V V V V F F F F F F F J L L L L L L L L L W W L W W W W W W W W W W W W W ^ ^ ^ ^ ^ ^ ^ ^ ^ ) ) ) ) ) ) ) ) } ) ) } }                                                                         ",
"                                                                                                                                                                                                                                                                                                z z z z z z z z V V V V V V V V V V V V V F F F F F F F J L L L L L L L L L W W L W W W W W W W W W W W W W ^ ^ ^ ^ ^ ^ ^ ^ ^ ) ) ) ) ) ) ) ) ) ) ) } } } } } } } } } } } } } | X.X.X.X.X.                                      ",
"                                                                                                                                                                                                                                                                                            z z z z z V V V z z V V V V V V V V V V V V V F F F F F F J J L L L L L L L L L L L W W W W W W W W W W W W W W ^ ^ ^ ^ ^ ^ ^ ^ ^ ) ) ) ) ) ) ) ) ) ) ) ) } } } } } } } } } } } } | X.X.X.X.X.X.                                    ",
"                                                                                                                                                                                                                                                                                          z z z z z z V V V V z V V V V V V V V V V V V V F F F F F F J J L L L L L L L L L W L W W W W W W W W W W W W W W W ^ ^ ^ ^ ^ ^ ^ ^ ) ) ) ) ) ) ) ) ) ) ) ) } } } } } } } } } } } } | X.X.X.X.X.X.                                    ",
"                                                                                                                                                                                                                                                                                        z z z z z z z V V V V z V V V V V V V V V V V V V F F F F F F J J L L L L L L L L L W W W W W W W W W W W W W W W W W ^ ^ ^ ^ ^ ^ ^ ^ ) ) ) ) ) ) ) ) ) } } ) } } } } } } } } } } } } | X.X.X.X.X.X.                                    ",
"                                                                                                                                                                                                                                                                                      z z z z z z z z z V V V V V V V V V V V V V V V V V F F F F F F F J L L L L L L L L L W W W W W W W W W W W W W W W W W ^ ^ ^ ^ ^ ^ ^ ^ ) ) ) ) ) ) ) ) } } } } } } } } } } } } } } } } | X.X.X.X.X.X.                                    ",
"                                                                                                                                                                                                                                                                                    z z z z z z z z z z z V V V V V V V V V V V V V V V V F F F F F F F J L L L L L L L L L W W W W W W W W W W W W W W W W ^ ) ^ ^ ^ ^ ^ ^ ^ ) ) ) ) ) ) ) ) ) } ) ) } } } } } } } } } } } } | X.X.X.X.X.X.                                    ",
"                                                                                                                                                                                                                                                                                  z z z z z z z z z z z z V V V V V V V V V V V V V V V V F F F F F F F J L L L L L L L L L W W W W W W W W W W W W W W W W ^ ) ^ ^ ^ ^ ^ ^ ^ ) ) ) ) ) ) ) ) ) } } ) } } } } } } } } } } } } | X.X.X.X.X.X.                                    ",
"                                                                                                                                                                                                                                                                              k k z z z z z z z z z z z z z V V V V V V V V V V V V V V V F F F F F F F J L L L L L L L L L W W L L W W W W W W W W W W W W ^ ^ ^ ^ ^ ^ ^ ^ ^ ) ) ) ) ) ) ) ) ) } } } } } } } } } } } } } } } | X.X.X.X.X.X.                                    ",
"                                                                                                                                                                                                                                                                            k k k z z z z z z z z z z z z z V V V V V V V V V V V V V V V F F F F F F F J L L L L L L L L L W W L L W W W W W W W W W W W W ^ ^ ^ ^ ^ ^ ^ ^ ^ ) ) ) ) ) ) ) ) ) } } } } } } } } } } } } } } } | X.X.X.X.X.X.                                    ",
"                                                                                                                                                                                                                                                                          k k k k z z z z z z z z z z z z V V V V V V V V V V V V V V V V F F F V F F F J L L L L L L L L L L W L L W W W W W W W W W W W W W ^ ^ ^ ^ ^ ^ ^ ^ ) ) ) ) ) ) ) ) } ) ) ) } } } } } } } } } } } } | X.X.X.X.X.X.                                    ",
"                                                                                                                                                                                                                                                                        k k k k k z z z z z z z z z z z z z V V V V V V V V V V V V V V V F F F V F F F J L L L L L L L L L L W W L W W W W W W W W W W W W W ^ ^ ^ ^ ^ ^ ^ ^ ) ) ) ) ) ) ) ) ) ) ) ) } } } } } } } } } } } } | X.X.X.X.X.X.                                    ",
"                                                                                                                                                                                                                                                                      p k k k k k z z z z z z z z z z z z z z z V V V V V V V V V V V V V F F F V F F F J L L L L L L L L L W W W W W W W W W W W W W W W W W ^ ^ ^ ^ ^ ^ ^ ^ ) ) ) ) ) ) ) ) ) ) ) ) } } } } } } } } } } } } | X.X.X.X.X.X.                                    ",
"                                                                                                                                                                                                                                                                    p p k k k k k z z z z z z z z z z z z z z z z V V V V V V V V V V V V F F F F F F F J L L L L L L L L L W W W W W W W W W W W W W W W W W ^ ^ ^ ^ ^ ^ ^ ^ ) ) ) ) ) ) ) ) ) ) ) ) } } } } } } } } } } } } | X.X.X.X.X.X.                                    ",
"                                                                                                                                                                                                                                                                p p p k k k k k k z z z z z z z z z z z V V V V z V V V V V V V V V V V V V F F F F F F J L L L L L L L L L W W W W W W W W W W W W W W W W W ^ ^ ^ ^ ^ ^ ^ ^ ^ ) ) ) ) ) ) ) ) } } } } } } } } } } } } } } } | X.X.X.X.X.X.                                    ",
"                                                                                                                                                                                                                                                              p p p p k k k k k k z z z z z z z z z z z V V V V z V V V V V V V V V V V V F F F F F F F J L L L L L L L L L W W W W W W W W W W W W W W W W W ^ ^ ^ ^ ^ ^ ^ ^ ^ ) ) ) ) ) ) ) ) } } } } } } } } } } } } } } } | X.X.X.X.X.X.                                    ",
"                                                                                                                                                                                                                                                            p p p p p k k k k k k z z z z z z z z z z z z V V V z V V V V V V V V V V V V V F F F F F F J L L L L L L L L L W W W L W W W W W W W W W W W W W ^ ^ ^ ^ ^ ^ ^ ^ ^ ) ) ) ) ) ) ) ) ) ) } } } } } } } } } } } } } } X.X.X.X.X.X.                                    ",
"                                                                                                                                                                                                                                                          p p p p p p k k k k k k z z z z z z z z z z z z V V V z V V V V V V V V V V V V V F F F F F F J J L L L L L L L L W W L L W W W W W W W W W W W W W ^ ^ ^ ^ ^ ^ ^ ^ ^ ) ) ) ) ) ) ) ) ) } } } } } } } } } } } } } } } X.X.X.X.X.X.                                    ",
"                                                                                                                                                                                                                                                        p p p p p p p p k k k k k z z z z z z z z z z z z z z z V V V V V V V V V V V V V F F F V F F F J J L L L L L L L L L L L L W W W W W W W W W W W W W ^ ^ ^ ^ ^ ^ ^ ^ ^ ) ) ) ) ) ) ) ) ) ) } } } } } } } } } } } } } } | X.X.X.X.X.                                    ",
"                                                                                                                                                                                                                                                      p p p p p p p p p k k k k k z z z z z z z z z z z z z z z V V V V V V V V V V V V V V F F V F F F J J L L L L L L L L L L L L W W W W W W W W W W W W W ^ ^ ^ ^ ^ ^ ^ ^ ^ ) ) ) ) ) ) ) ) ) ) } } } } } } } } } } } } } } | X.X.X.X.X.                                    ",
"                                                                                                                                                                                                                                                  p p p p p p p p p p p k k k k k z z z z z z z z z z z V V z V V V V V V V V V V V V V V V F F V F F F J J L L L L L L L L L W W W W W W W W W W W W W W W W ^ ^ ^ ^ ^ ^ ^ ^ ^ ) ) ) ) ) ) ) ) ) ) ) } } } } } } } } } } } } } | X.X.X.X.X.                                    ",
"                                                                                                                                                                                                                                                p p p p p p p p p p p p k k k k k z z z z z z z z z z z V V V V V V V V V V V V V V V V V V F F F F F F J J L L L L L L L L L W W W W W W W W W W W W W W W W ^ ^ ^ ^ ^ ^ ^ ^ ^ ) ) ) ) ) ) ) ) ) ) ) } } } } } } } } } } } } } | X.X.X.X.X.                                    ",
"                                                                                                                                                                                                                                              p p p p p p p p p p p p k k k k k k z z z z z z z z z z z z V V V V V V V V V V V V V V V V V F F F F F F J J L L L L L L L L L W W W W W W W W W W W W W W W W ^ ^ ^ ^ ^ ^ ^ ^ ^ ) ) ) ) ) ) ) ) ) ) ) ) } } } } } } } } } } } } X.X.X.X.X.X.                                    ",
"                                                                                                                                                                                                                                            e p p p p p p p p p p p p k k k k k k z z z z z z z z z z z z V V V V V V V V V V V V V V V V V F F F F F F J J L L L L L L L L L W W W W W W W W W W W W W W W W ^ ^ ^ ^ ^ ^ ^ ^ ^ ) ) ) ) ) ) ) ) ) ) ) ) } } } } } } } } } } } } | X.X.X.X.X.                                    ",
"                                                                      W W                                                                                                                                                                 e p p p p p p p p p p p p p p k k k k k k z z z z z z z z z z z V V V V V V V V V V V V V V V V V F F F F F F J J L L L L L L L L L W L W W W W W W W W W W W W W W ^ ^ ^ ^ ^ ^ ^ ^ ^ ) ) ) ) ) ) ) ) ) } ) ) } } } } } } } } } } } } | X.X.X.X.X.                                    ",
"                                                                W W W W W W W W W                                                                                                                                                       e p p p p p p p p p p p p p p p k k k k k k z z z z z z z z z z z V V V V V V V V V V V V V V V V V F F F F F F J J L L L L L L L L L W L W W W W W W W W W W W W W W ^ ^ ^ ^ ^ ^ ^ ^ ^ ) ) ) ) ) ) ) ) } } ) ) } } } } } } } } } } } } | X.X.X.X.X.                                    ",
"                                                              W W W W W W W W W W W                                                                                                                                                 3 r p p p p p p p p p p p p p p p p k k k k k k z z z z z z z z z z z z z z z V V V V V V V V V V V V V F F F F F F J J L L L L L L L L L W L L W W W W W W W W W W W W W ^ ^ ^ ^ ^ ^ ^ ^ ^ ) ) ) ) ) ) ) ) } } } } } } } } } } } } } } } } | X.X.X.X.X.                                    ",
"                                                            W W W W W W W W W W W W W                                                                                                                                             3 3 r p p p p p p p p p p p p p p p p k k k k k k z z z z z z z z z z z z z z z V V V V V V V V V V V V V F F F F F F F J L L L L L L L L L W L L W W W W W W W W W W W W W ^ ^ ^ ^ ^ ^ ^ ^ ^ ) ) ) ) ) ) ) ) } } } } } } } } } } } } } } } } | X.X.X.X.X.                                    ",
"                                                          W W W W W W W W W W W W W W W W                                                                                                                                       3 3 3 3 p p p p p p p p p p p p p p p p k k k k k k z z z z z z z z z z z V V V z V V V V V V V V V V V V V F F F F F F F J L L L L L L L L L W                                                                         } } } } } } } } } } } } | X.X.X.X.X.                                    ",
"                                                        W W W W W W W W W W W W W W W W W W                                                                                                                                   3 3 3 3 3 p p p p p p p p p p p p p p p p p k k k k k z z z z z z z z z z z V V V z V V V V V V V V V V V V V F F F F F F F J L L L L L L L L L W                                                                         } } } } } } } } } } } } | X.X.X.X.X.                                    ",
"                                                      W W W W W W W W W W W W W W W W W W W W W                                                                                                                             3 3 3 3 3 3 p p p p p p p p p p p p p p p p k k k k k k z z z z z z z z z z z z z z V V V V V V V V V V V V V V F F F F F F F J L L L L L L L L L W                                                                         } } } } } } } } } } } } | X.X.X.X.X.                                    ",
"                                                    W W W W W W W W W W W W W W W W W W W W W W W                                                                                                                         3 3 3 3 3 3 3 p p p p p p p p p p p p p p p p k k k k k k z z z z z z z z z z z z z z V V V V V V V V V V V V V V F F F F F F F J L L L L L L L L L W                                                                         } } } } } } } } } } } } | X.X.X.X.X.                                    ",
"                                                  W W W W W W W W W W W W W W W W W W W W W W W W W                                                                                                                   3 3 3 3 3 3 3 3 3 p p e p p p p p p p p p p p p p k k k k k k z z z z z z z z z z z z V V V V V V V V V V V V V V V V F F F F F F F J L L L L L L L L L W                                                                         } } } } } } } } } } } } | X.X.X.X.X.                                    ",
"                                              W W W W W W W W W W W W W W W W W W W W W W W W W W W W W                                                                                                             3 3 3 3 3 3 r r 3 3 e e e p p p p p p p p p p p p p k k k k k k z z z z z z z z z z z z V V z V V V V V V V V V V V V V F F F F F F F J L L L L L L L L L W                                                                         } } } } } } } } } } } } | X.X.X.X.X.                                    ",
"                                            W W W W W W W W W W W W W W W W W W W W W W W W W W W W W W W                                                                                                         3 3 3 3 3 3 3 r r r r e e e p p p p p p p p p p p p p p k k k k k z z z z z z z z z z z V V V z V V V V V V V V V V V V V F F F F F F F J L L L L L L L L L L W W W W W W W W W W W W                                                 } } } } } } } } } } } } | X.X.X.X.X.                                    ",
"                                          W W W W W W W W W W W W W W W W W W W W W W W W W W W W W W W W W                                                                                                     3 3 3 3 3 3 3 3 r r r r e p e p p p p p p p p p p p p p p k k k k k z z z z z z z z z z z V V V z V V V V V V V V V V V V V F F F V F F F J L L L L L L L L L L W W W W W W W W W W W W                                                 } } } } } } } } } } } } | X.X.X.X.X.                                    ",
"                                        W W W W W W W W W W W W W W W W W W W W W W W W W W W W W W W W W W W W                                                                                               3 3 3 3 3 3 3 3 3 3 3 r r e p p p p p p p p p p p p p p p p k k k k k z z z z z z z z z z z V V V z V V V V V V V V V V V V V V F F F F F F J L L L L L L L L L L W W W W W W W W W W W W                                                 } } } } } } } } } } } } | X.X.X.X.X.                                    ",
"                                        W W W W W W W W W W W W W W W W W W W W W W W W W W W W W W W W W W W W W                                                                                           3 3 3 3 3 3 3 3 3 3 3 3 3 r e p p p p p p p p p p p p p p p p k k k k k z z z z z z z z z z z V V V z V V V V V V V V V V V V V V F F F F F F J L L L L L L L L L L L W W W W W W W W W W W                                                 } } } } } } } } } } } } | X.X.X.X.X.                                    ",
"                                      W W W W W W W W W W W W W W W W W W W W W W W W W W W W W W W W W W W W W W W                                                                                     , , , 3 3 3 3 3 3 3 3 3 3 3 3 3 e e e p p p p p p p p p p p p p k k k k k k z z z z z z z z z z z z V V z V V V V V V V V V V V V V F F F F F F F J L L L L L L L L L L W W W W W W W W W W W W                                                 } } } } } } } } } } } } } X.X.X.X.X.                                    ",
"                                    W W W W W W W W W W W W W W W W W W W W W W W W W W W W W W W W W W W W W W W W W W                                                                               , , , , 3 3 3 3 3 3 3 3 3 3 3 3 3 e p e p p p p p p p p p p p p p k k k k k k z z z z z z z z z z z z V V z V V V V V V V V V V V V V F F F F F F F J J L L L L L L L L L W W L W W W W W W W W W                                                 } } } } } } } } } } } } } X.X.X.X.X.                                    ",
"                                    W W W W W W W W W W W W W W W W W W W W W W W W W W W W W W W W W W W W W W W W W W W                                                                           + , , , , 3 3 3 3 3 3 3 3 3 r r r r e p p p p p p p p p p p p p p p k k k k k k z z z z z z z z z z z z V V z V V V V V V V V V V V V V F F F F F F F J L L L L L L L L L L W W W W W W W W W W W W                                                 } } } } } } } } } } } } } X.X.X.X.X.                                    ",
"                                    W W W W W W W W W W W W W W W W W W W W W W W W W W W W W W W W W W W W W W W W W W W W                                                                       + + , , , , 3 3 3 3 3 3 3 3 3 r r r r e p p p p p p p p p p p p p p p k k k k k k z z z z z z z z z z z z V V z z V V V V V V V C V V V V F F F F F F F J L L L L L L L L L W W W W W W W W W W W W W                                                 } } } } } } } } } } } } } | X.X.X.X.                                    ",
"                                    W W W W W W W W W W W W W W W W W W W W W W W W W W W W W W W W W W W W W W W W W W W W W W                                                                 + + + , , , , 3 3 3 3 3 3 3 3 3 r r 3 3 r p p p p p p p p p p p p p p p p k k k k k z z z z z z z z z z z z z V z V V V V V V V V V V V V V V F F F F F F J J L L L L L L L L W L L L W W W W W W W W W                                                 } } } } } } } } } } } } } X.X.X.X.X.                                    ",
"                                    W W W W W W W W W W W W W W W W W W W W W W W W W W W W W W W W W W W W W W W W W W W W W W W                                                             3 + + + + , , , 3 3 3 3 3 3 3 3 3 3 r 3 3 r p p p p p p p p p p p p p p p p k k k k k z z z z z z z z z z z z z V z z V V V V V V V V V V V V V F F V F F F J J L L L L L L L L W L L L W W W W W W W W W                                                 } } } } } } } } } } } } } X.X.X.X.X.                                    ",
"                                    W W W W W W W W W W W W W W W W W W W W W W W W W W W W W W W W W W W W W W W W W W W W W W W W                                                       + 1 3 3 , + , , , , 3 3 3 3 3 3 3 3 3 3 3 3 3 r p p p p p p p p p p p p p p p p k k k k k k z z z z z z z z z z z z V V V V V V V V V V V V V V V V F V V F F F J J L L L L L L L L L L L W W W W W W W W W W                                                 } } } } } } } } } } } } } | X.X.X.X.                                    ",
"                                    W W W W W W W W W W W W W W W W W W W W W W W W W W W W W W W W W W W W W W W W W W W W W W W W W W                                                 + + + + , , + , , , , 3 3 3 3 3 3 3 3 3 3 3 3 3 r p p p p p p p p p p p p p p p p k k k k k k z z z z z z z z z z z z V V V V V V V V V V V V V V V V F V V F F F J J L L L L L L L L L L W W W W W W W W W W W                                                 } } } } } } } } } } } } } | X.X.X.X.                                    ",
"                                      W W W W W W W W W W W W W W W W W W W W W W W W W W W W W W W W W W W W W W W W W W W W W W W W W W                                             + + + + + 3 3 + + , , 3 3 3 3 3 3 3 3 3 3 3 3 3 3 3 p p p p p p p p p p p p p p p k k k k k k z z z z z z z z z z z V V V V V V V V V V V V V V V V V V F F F F F F J J L L L L L L L L W W W W W W W W W W W W W W W W W ^ ^ ^ ^ ^ ^ ^ ^                                                                                                 ",
"                                      W W W W W W W W W W W W W W W W W W W W W W W W W W W W W W W W W W W W W W W W W W W W W W W W W W W                                         + + + + + + , , + + , , 3 3 3 3 3 3 3 3 3 3 3 3 3 3 3 p p p p p p p p p p p p p p p p k k k k k z z z z z z z z z z z z V V V V V V   V V V V V V V V V V F F F F F F J J L L L L L L L L W W W W W W W W W W W W W W W W W ^ ^ ^ ^ ^ ^ ^ ^                                                                                                 ",
"                                        W W W W W W W W W W W W W W W W W W W W W W W W W W W W W W W W W W W W W W W W W W W W W W W W W W W W                                   + + + + + + 1 , + + + , , 3 3 3 3 3 3 3 3 3 3 3 r 3 3 3 e p p p p p p p p p p p p p p p k k k k k k z z z z z z z z z z z V V V V V     V V V V V V V V V V F F F F F F J J L L L L L L L L L L L W W W W W W W W W W W W W W W ^ ^ ^ ^ ^ ^ ^                                                                                                 ",
"                                            W W W W W W W W W W W W W W W W W W W W W W W W W W W W W W W W W W W W W W W W W W W W W W W W W W W                               + + + + + + + 1 + , + + , , 3 3 3 3 3 3 3 3 3 3 3 r 3 3 3 e p p p p p p p p p p p p p p p k k k k k k z z z z z z z z z z z V V V V       V V V V V V V V V V F F F F F F J J L L L L L L L L L L L W W W W W W W W W W W W W W W ^ ^ ^ ^ ^ ^ ^                                                                                                 ",
"                                              W W W W W W W W W W W W W W W W W W W W W W W W W W W W W W W W W W W W W W W W W W W W W W W W W W W                         + + + + + + + + + 1 + + + + , , , 3 3 3 3 3 3 3 3 3 3 r r r 3 e p p p p p p p p p p p p p p p k k k k k k z z z z z z z z z z z z z V         V V V V V V V V V V F F F F F F F J L L L L L L L L L L L W W W W W W W W W W W W W W W ^ ^ ^ ^ ^ ^ ^                                                                                                 ",
"                                                W W W W W W W W W W W W W W W W W W W W W W W W W W W W W W W W W W W W W W W W W W W W W W W W W W W W                   + + + + + + + + + + + + + + + , , , 3 3 3 3 3 3 3 3 3 3 r r r 3 e p p p p p p p p p p p p p p p k k k k k k z z z z z z z z z z z z             V V V V V V V V V V F F F F F F F J L L L L L L L L L L L W W W W W W W W W W W W W W W ^ ^ ^ ^ ^ ^ ^                                                                                                 ",
"                                                  W W W W W W W W W W W W W W W W W W W W W W W W W W W W W W W W W W W W W W W W W W W W W W W W W W W W               + + + + + + + + + + + + , , + + , , , 3 3 3 3 3 3 3 3 3 3 3 r r 3 e p p p p p p p p p p p p p p p p k k k k k z z z z z z z z z z z               V V V V V V V V V V F F F F F F F J L L L L L L L L L L W W W W W W W W W W W W W W W W ^ ^ ^ ^ ^ ^ ^                                                                                                 ",
"                                                    W W W W W W W W W W W W W W W W W W W W W W W W W W W W W W W W W W W W W W W W W W W W W W W W W W W W           + + + + + + + + + + + + + 3 , + + , , , 3 3 3 3 3 3 3 3 3 3 3 r r 3 e p p p p p p p p p p p p p p p p k k k k k z z z z z z z z z z                 V V V V V V V V V V F F F F F F F J L L L L L L L L L L W W W W W W W W W W W W W W W W ^ ^ ^ ^ ^ ^ ^                                                                                                 ",
"                                                      W W W W W W W W W W W W W W W W W W W W W W W W W W W W W W W W W W W W W W W W W W W W W W W W W W W W W     . + + + + + + + + + + + + + 3 3 + + , , , 3 3 3 3 3 3 3 3 3 3 r r r 3 e e p p p p p p p p p p p p p p k k k k k k z z z z z z z z z                   V V V V V V V V V V F F F F F F F J L L L L L L L L L W W L W W W W W W W W W W W W W W ^ ^ ^ ^ ^ ^ ^                                                                                                 ",
"                                                        W W W W W W W W W W W W W W W W W W W W W W W W W W W W W W W W W W W W W W W W W W W W W W W W W W W W J + . + + + + + + + + + + + + + 3 3 + + , , , 3 3 3 3 3 3 3 3 3 3 r r r 3 e e p p p p p p p p p p p p p p k k k k k k z z z z z z z z                     V V V V V V V V V V F F F F F F F J L L L L L L L L L W W L L W W W W W W W W W W W W W ^ ^ ^ ^ ^ ^ ^                                                                                                 ",
"                                                          W W W W W W W W W W W W W W W W W W W W W W W W W W W W W W W W W W W W W W W W W W W W W W W W W W W W F 3 + + + + + + + + + + + + + 3 , , + , , , 3 3 3 3 3 3 3 3 3 3 r r r 3 e p p p p p p p p p p p p p p p k k k k k k z z z z z z z                       V V V V V V V V V V F F F V F F F J L L L L L L L L L L W L W W W W W W W W W W W W W W ^ ^ ^ ^ ^ ^ ^                                                                                                 ",
"                                                            W W W W W W W W W W W W W W W W W W W W W W W W W W W W W W W W W W W W W W W W W W W W W W W W W W W W J p + + + + + + + + + + + 1 3 , + + , , , 3 3 3 3 3 3 3 3 3 3 r r r 3 e p p p p p p p p p p p p p p p k k k k k k z z z z z z                         V V V V V V V V V V F F F V F F F J L L L L L L L L L W W L L W W W W W W W W W W W W W ^ ^ ^ ^ ^ ^ ^                                                                                                 ",
"                                                              W W W W W W W W W W W W W W W W W W W W W W W W W W W W W W W W W W W W W W W W W W W W W W W W W W W W W z + + + + + + + + + + 1 + + + + , , , 3 3 3 3 3 3 3 3 3 3 3 r r r p p p p p p p p p p p p p p p p p k k k k k z z z z z                           V V V V V V V V V V F F F F F F F J L L L L L L L L L W W W L W W W W W W W W W W W W W ^ ^ ^ ^ ^ ^ ^                                                                                                 ",
"                                                                  W W W W W W W W W W W W W W W W W W W W W W W W W W W W W W W W W W W W W W W W W W W W W W W W W W W W V 3 + + + + + + + + 1 + + + + , , , 3 3 3 3 3 3 3 3 3 3 3 r r r p p p p p p p p p p p p p p p p p k k k k k z z z                               V V V V V V V V V V F F F F F F F J L L L L L L L L L W W L W W W W W W W W W W W W W W ^ ^ ^ ^ ^ ^ ^                                                                                                 ",
"                                                                    W W W W W W W W W W W W W W W W W W W W W W W W W W W W W W W W W W W W W W W W W W W W W W W W W W W W J p + + + + + + + + , , + + + , , 3 3 3 3 3 3 3 3 3 3 3 3 3 r p p p p p p p p p p p p p p p p p k k k k k z z                                 V V V V V V V V V V V F F F F F F J L L L L L L L L L L L L L W W W W W W W W W W W W W ^ ^ ^ ^ ^ ^ ^                                                                                                 ",
"                                                                      W W W W W W W W W W W W W W W W W W W W W W W W W W W W W W W W W W W W W W W W W W W W W W W W W W W W W k + + + + + + + 3 3 + + , , , , 3 3 3 3 3 3 3 3 3 3 3 3 r p p p p p p p p p p p p p p p p p k k k k k z                                   V V V V V V V V V V V F F F F F F J L L L L L L L L L L L L L W W W W W W W W W W W W W ^ ^ ^ ^ ^ ^ ^                                                                                                 ",
"                                                                        W W W W W W W W W W W W W W W W W W W W W W W W W W W W W W W W W W W W W W W W W W W W W W W W W W W W W z + + + + + + 3 3 3 3 , , , , 3 3 3 3 3 3 3 3 3 3 3 3 3 e p p p p p p p p p p p p p p p k k k k k k                                     V V V V V V V V V V F F F F F F F J J L L L L L L L L L L L L W W W W W W W W W W W W W ^ ^ ^ ^ ^ ^ ^                                                                                                 ",
"                                                                          W W W W W W W W W W W W W W W W W W W W W W W W W W W W W W W W W W W W W W W W W W W W W W W W W W W W W V 3 + + + + 3 3 , , , , , , 3 3 3 3 3 3 3 3 3 3 3 3 3 p p p p p p p p p p p p p p p p k k k k k                                       V V V V V V V V V V V F F F F F F J J L L L L L L L L L W L L W W W W W W W W W W W W W ^ ^ ^ ^ ^ ^ ^                                                                                                 ",
"                                                                            W W W W W W W W W W W W W W W W W W W W W W W W W W W W W W W W W W W W W W W W W W W W W W W W W W W W W F p + + + + + , + , , , , 3 3 3 3 3 3 3 3 3 3 3 3 3 e p p p p p p p p p p p p p p p p k k k                                         V V V V V V V V V V V F F F F F F J J L L L L L L L L L W W W W W W W W W W W W W W W W ^ ^ ^ ^ ^ ^ ^                                                                                                 ",
"                                                                              W W W W W W W W W W W W W W W W W W W W W W W W W W W W W W W W W W W W W W W W W W W W W W W W W W W W W I p + + + + + + , , , , 3 3 3 3 3 3 3 3 3 3 3 3 3 e p p e p p p p p p p p p p p p p k k                                           V V V V V V V V V V V F F F F F F J L L L L L L L L L L W W W W W W W W W W W W W W W W ^ ^ ^ ^ ^ ^                                                                                                   ",
"                                                                                W W W W W W W W W W W W W W W W W W W W W W W W W W W W W W W W W W W W W W W W W W W W W W W W W W W W W W z + + + , , , , , , 3 3 3 3 3 3 3 3 3 r r r 3 e p p p p p p p p p p p p p p p p k                                             V V V V V V V V V V F F F F F F F J J L L L L L L L L L W W W W W W W W W W W W W W W W ^ ^ ^ ^ ^ ^                                                                                                   ",
"                                                                                  W W W W W W W W W W W W W W W W W W W W W W W W W W W W W W W W W W W W W W W W W W W W W W W W W W W W W W V 3 + 3 3 + , , , 3 3 3 3 3 3 3 3 3 r r r 3 3 p p p p p p p p p p p p p p p p                                                 V V V V V V V V V F F F F F F F J J L L L L L L L L L W W W W W W W W W W W W W W W W W ^ ^ ^ ^ ^                                                                                                   ",
"                                                                                    W W W W W W W W W W W W W W W W W W W W W W W W W W W W W W W W W W W W W W W W W W W W W W W W W W W W W W F r , 3 + , , , 3 3 3 3 3 3 3 3 3 3 r r 3 3 e p p p p p p p p p p p p p p                                                       V V                                                                                 ^ ^                                                                                                         ",
"                                                                                      W W W W W W W W W W W W W W W W W W W W W W W W W W W W W W W W W W W W W W W W W W W W W W W W W W W W W W J p 3 + , , , 3 3 3 3 3 3 3 3 3 3 r r 3 3 e p p p p p p p p p p p p p                                                                                                                                                                                                                                                         ",
"                                                                                          W W W W W W W W W W W W W W W W W W W W W W W W W W W W W W W W W W W W W W W W W W W W W W W W W W W W W I k , , , , 3 3 3 3 3 3 3 3 3 3 3 3 3 3 p p p p p p p p p p p p                                                                                                                                                                                                                                                             ",
"                                                                                            W W W W W W W W W W W W W W W W W W W W W W W W W W W W W W W W W W W W W W W W W W W W W W W W W W W W W W V 3 , , 3 3 3 3 3 3 3 3 3 3 3 3 3 3 p p p p p p p p p p p                                                                                                                                                                                                                                                               ",
"                                                                                              W W W W W W W W W W W W W W W W W W W W W W W W W W W W W W W W W W W W W W W W W W W W W W W W W W W W W W F r , 3 3 3 3 3 3 3 3 3 3 3 r 3 3 p p p p p p p p p p                                                                                                                                                                                                                                                                 ",
"                                                                                                W W W W W W W W W W W W W W W W W W W W W W W W W W W W W W W W W W W W W W W W W W W W W W W W W W W W W W F p 3 3 3 3 3 3 3 3 3 3 r r 3 3 p p p p p p p p p                                                                                                                                                                                                                                                                   ",
"                                                                                                  W W W W W W W W W W W W W W W W W W W W W W W W W W W W W W W W W W W W W W W W W W W W W W W W W W W W W W I k 3 3 3 3 3 3 3 3 3 r r r r p p p p p p p p                                                                                                                                                                                                                                                                     ",
"                                                                                                    W W W W W W W W W W W W W W W W W W W W W W W W W W W W W W W W W W W W W W W W W W W W W W W W W W W W W W W V 3 3 3 3 3 3 3 3 r r r r p p p p p p p                                                                                                                                                                                                                                                                       ",
"                                                                                                      W W W W W W W W W W W W W W W W W W W W W W W W W W W W W W W W W W W W W W W W W W W W W W W W W W W W W W W V 3 3 3 3 3 3 3 r r r 3 p p p p p p                                                                                                                                                                                                                                                                         ",
"                                                                                                        W W W W W W W W W W W W W W W W W W W W W W W W W W W W W W W W W W W W W W W W W W W W W W W W W W W W W W W F p 3 3 3 3 3 3 r 3 r p p p p p                                                                                                                                                                                                                                                                           ",
"                                                                                                          W W W W W W W W W W W W W W W W W W W W W W W W W W W W W W W W W W W W W W W W W W W W W W W W W W W W W W W F p 3 3 3 3 3 3 3 3 p p p p                                                                                                                                                                                                                                                                             ",
"                                                                                                            W W W W W W W W W W W W W W W W W W W W W W W W W W W W W W W W W W W W W W W W W W W W W W W W W W W W W W W W z 3 3 3 r 3 3 3 p p p                                                                                                                                                                                                                                                                               ",
"                                                                                                            . p W W W W W W W W W W W W W W W W W W W W W W W W W W W W W W W W W W W W W W W W W W W W W W W W W W W W W W W V r 3 3 3 3 3 p p                                                                                                                                                                                                                                                                                 ",
"                                                                                                          . . . p W W W W W W W W W W W W W W W W W W W W W W W W W W W W W W W W W W W W W W W W W W W W W W W W W W W W W W W V r 3 3 3 3 p                                                                                                                                                                                                                                                                                   ",
"                                                                                                        . . . . . p L W W W W W W W W W W W W W W W W W W W W W W W W W W W W W W W W W W W W W W W W W W W W W W W W W W W W W W F p r 3 3                                                                                                                                                                                                                                                                                     ",
"                                                                                                      . . . . . . . e J W W W W W W W W W W W W W W W W W W W W W W W W W W W W W W W W W W W W W W W W W W W W W W W W W W W W W W I z 3                                                                                                                                                                                                                                                                                       ",
"                                                                                                    . . . . . . . . . e F W W W W W W W W W W W W W W W W W W W W W W W W W W W W W W W W W W W W W W W W W W W W W W W W W W W W W W W                                                                                                                                                                                                                                                                                         ",
"                                                                                                  . . . . . . . . . . . 3 F W W W W W W W W W W W W W W W W W W W W W W W W W W W W W W W W W W W W W W W W W W W W W W W W W W W W W W W W                                                                                                                                                                                                                                                                                     ",
"                                                                                                . . . . . . . . . . . . . 1 F W W W W W W W W W W W W W W W W W W W W W W W W W W W W W W W W W W W W W W W W W W W W W W W W W W W W W W W W                                                                                                                                                                                                                                                                                   ",
"                                                                                              . . . . . . . . . . . . . . . 1 V W W W W W W W W W W W W W W W W W W W W W W W W W W W W W W W W W W W W W W W W W W W W W W W W W W W W W W W W                                                                                                                                                                                                                                                                                 ",
"                                                                                            . . . . . . . . . . . . . . . . . 1 V W W W W W W W W W W W W W W W W W W W W W W W W W W W W W W W W W W W W W W W W W W W W W W W W W W W W W W W W                                                                                                                                                                                                                                                                               ",
"                                                                                          . . . . . . . . . . . . . . . . . . . 1 V W W W W W W W W W W W W W W W W W W W W W W W W W W W W W W W W W W W W W W W W W W W W W W W W W W W W W W W W                                                                                                                                                                                                                                                                             ",
"                                                                                        . . . . . . . . . . . . . . . . . . . . . + z W W W W W W W W W W W W W W W W W W W W W W W W W W W W W W W W W W W W W W W W W W W W W W W W W W W W W W W W W                                                                                                                                                                                                                                                                         ",
"                                                                                      . . . . . . . . . . . . . . . . . . . . . . . . z W W W W W W W W W W W W W W W W W W W W W W W W W W W W W W W W W W W W W W W W W W W W W W W W W W W W W W W W W                                                                                                                                                                                                                                                                       ",
"                                                                                    . . . . . . . . . . . . . . . . . . . . . . . . . . z W W W W W W W W W W W W W W W W W W W W W W W W W W W W W W W W W W W W W W W W W W W W W W W W W W W W W W W W W                                                                                                                                                                                                                                                                     ",
"                                                                                  . . . . . . . . . . . . . . . . . . . . . . . . . . . . z W W W W W W W W W W W W W W W W W W W W W W W W W W W W W W W W W W W W W W W W W W W W W W W W W W W W W W W W W                                                                                                                                                                                                                                                                   ",
"                                                                                . . . . . . . . . . . . . . . . . . . . . . . . . . . . . . f W W W W W W W W W W W W W W W W W W W W W W W W W W W W W W W W W W W W W W W W W W W W W W W W W W W W W W W W W                                                                                                                                                                                                                                                                 ",
"                                                                              . . . . . . . . . . . . . . . . . . . . . . . . . . . . . . . . p W W W W W W W W W W W W W W W W W W W W W W W W W W W W W W W W W W W W W W W W W W W W W W W W W W W W W W W W W W                                                                                                                                                                                                                                                             ",
"                                                                            . . . . . . . . . . . . . . . . . . . . . . . . . . . . . . . . . . p W W W W W W W W W W W W W W W W W W W W W W W W W W W W W W W W W W W W W W W W W W W W W W W W W W W W W W W W W W                                                                                                                                                                                                                                                           ",
"                                                                          . . . . . . . . . . . . . . . . . . . . . . . . . . . . . . . . . . . . e J W W W W W W W W W W W W W W W W W W W W W W W W W W W W W W W W W W W W W W W W W W W W W W W W W W W W W W W W W                                                                                                                                                                                                                                                         ",
"                                                                        . . . . . . . . . . . . . . . . . . . . . . . . . . . . . . . . . . . . . . e F W W W W W W W W W W W W W W W W W W W W W W W W W W W W W W W W W W W W W W W W W W W W W W W W W W W W W W W W W                                                                                                                                                                                                                                                       ",
"                                                                    . . . . . . . . . . . . . . . . . . . . . . . . . . . . . . . . . . . . . . . . . 3 F W W W W W W W W W W W W W W W W W W W W W W W W W W W W W W W W W W W W W W W W W W W W W W W W W W W W W W W W W                                                                                                                                                                                                                                                     ",
"                                                                  . . . . . . . . . . . . . . . . . . . . . . . . . . . . . . . . . . . . . . . . . . . 1 V W W W W W W W W W W W W W W W W W W W W W W W W W W W W W W W W W W W W W W W W W W W W W W W W W W W W W W W W W W                                               W W W W W W W W W W W W W W W W W W W W W W W W W W W W W W W W W W W W W W W W W W W W W W W                                                                                                     ",
"                                                                . . . . . . . . . . . . . . . . . . . . . . . . . . . . . . . . . . . . . . . . . . . . . 1 V W W W W W W W W W W W W W W W W W W W W W W W W W W W W W W W W W W W W W W W W W W W W W W W W W W W W W W W W W W                                           W W W W W W W W W W W W W W W W W W W W W W W W W W W W W W W W W W W W W W W W W W W W W W W W W                                                                                                   ",
"                                                              . . . . . . . . . . . . . . . . . . . . . . . . . . . . . . . . . . . . . . . . . . . . . . . 1 V W W W W W W W W W W W W W W W W W W W W W W W W W W W W W W W W W W W W W W W W W W W W W W W W W W W W W W W W W W                                       W W W W W W W W W W W W W W W W W W W W W W W W W W W W W W W W W W W W W W W W W W W W W W W W W W                                                                                                   ",
"                                                            . . . . . . . . . . . . . . . . . . . . . . . . . . . . . . . . . . . . . . . . . . . . . . . . . 1 V W W W W W W W W W W W W W W W W W W W W W W W W W W W W W W W W W W W W W W W W W W W W W W W W W W W W W W W W W W                                     W W W W W W W W W W W W W W W W W W W W W W W W W W W W W W W W W W W W W W W W W W W W W W W W W W W                                                                                                 ",
"                                                          . . . . . . . . . . . . . . . . . . . . . . . . . . . . . . . . . . . . . . . . . . . . . . . . . . . + V W W W W W W W W W W W W W W W W W W W W W W W W W W W W W W W W W W W W W W W W W W W W W W W W W W W W W W W W W W                                   W W W W W W W W W W W W W W W W W W W W W W W W W W W W W W W W W W W W W W W W W W W W W W W W W W W                                                                                                 ",
"                                                        . . . . . . . . . . . . . . . . . . . . . . . . . . . . . . . . . . . . . . . . . . . . . . . . . . . . . + z W W W W W W W W W W W W W W W W W W W W W W W W W W W W W W W W W W W W W W W W W W W W W W W W W W W W W W W W W W W                               W W W W W W W W W W W W W W W W W W W W W W W W W W W W W W W W W W W W W W W W W W W W W W W W W W W                                                                                                 ",
"                                                      . . . . . . . . . . . . . . . . . . . . . . . . . . . . . . . . . . . . . . . . . . . . . . . . . . . . . . . + z W W W W W W W W W W W W W W W W W W W W W W W W W W W W W W W W W W W W W W W W W W W W W W W W W W W W W W W W W W W                             W W W W W W W W W W W W W W W W W W W W W W W W W W W W W W W W W W W W W W W W W W W W W W W W W W W                                                                                                 ",
"                                                    . . . . . . . . . . . . . . . . . . . . . . . . . . . . . . . . . . . . . . . . . . . . . . . . . . . . . . . . . . z W W W W W W W W W W W W W W W W W W W W W W W W W W W W W W W W W W W W W W W W W W W W W W W W W W W W W W W W W W W                           W W W W W W W W W W W W W W W W W W W W W W W W W W W W W W W W W W W W W W W W W W W W W W W W W W W                                                                                                 ",
"                                                  . . . . . . . . . . . . . . . . . . . . . . . . . . . . . . . . . . . . . . . . . . . . . . . . . . . . . . . . . . . . z W W W W W W W W W W W W W W W W W W W W W W W W W W W W W W W W W W W W W W W W W W W W W W W W W W W W W W W W W W W                         W W W W W W W W W W W W W W W W W W W W W W W W W W W W W W W W W W W W W W W W W W W W W W W W W W W                                                                                                 ",
"                                                . . . . . . . . . . . . . . . . . . . . . . . . . . . . . . . . . . . . . . . . . . . . . . . . . . . . . . . . . . . . . . z W W W W W W W W W W W W W W W W W W W W W W W W W W W W W W W W W W W W W W W W W W W W W W W W W W W W W W W W W W W                       W W W W W W W W W W W W W W W W W W W W W W W W W W W W W W W W W W W W W W W W W W W W W W W W W W W                                                                                                 ",
"                                              . . . . . . . . . . . . . . . . . . . . . . . . . . . . . . . . . . . . . . . . . . . . . . . . . . . . . . . . . . . . . . . . L W W W W W W W W W W W W W W W W W W W W W W W W W W W W W W W W W W W W W W W W W W W W W W W W W W W W W W W W W W W W                   W W W W W W W W W W W W W W W W W W W W W W W W W W W W W W W W W W W W W W W W W W W W W W W W W W W                                                                                                 ",
"                                            . . . . . . . . . . . . . . . . . . . . . . . . . . . . . . . . . . . . . . . . . . . . . . . . . . . . . . . . . . . . . . . .     W W W W W W W W W W W W W W W W W W W W W W W W W W W W W W W W W W W W W W W W W W W W W W W W W W W W W W W W W W W W W                 W W W W W W W W W W W W W W W W W W W W W W W W W W W W W W W W W W W W W W W W W W W W W W W W W W W                                                                                                 ",
"                                          . . . . . . . . . . . . . . . . . . . . . . . . . . . . . . . . . . . . . . . . . . . . . . . . . . . . . . . . . . . . . . .           W W W W W W W W W W W W W W W W W W W W W W W W W W W W W W W W W W W W W W W W W W W W W W W W W W W W W W W W W W W W W               W W W W W W W W W W W W W W W W W W W W W W W W W W W W W W W W W W W W W W W W W W W W W W W W W W W                             W W W W W W W W W W W W W W W W                                     ",
"                                        . . . . . . . . . . . . . . . . . . . . . . . . . . . . . . . . . . . . . . . . . . . . . . . . . . . . . . . . . . . . . . .               W W W W W W W W W W W W W W W W W W W W W W W W W W W W W W W W W W W W W W W W W W W W W W W W W W W W W W W W W W W W W             W W W W W W W W W W W W W W W W W W W W W W W W W W W W W W W W W W W W W W W                                                     W W W W W W W W W W W W W W W W                                     ",
"                                      . . . . . . . . . . . . . . . . . . . . . . . . . . . . . . . . . . . . . . . . . . . . . . . . . . . . . . . . . . . . . . .                     W W W W W W W W W W W W W W W W W W W W W W W W W W W W W W W W W W W W W W W W W W W W W W W W W W W W W W W W W W W W           W W W W W W W W W W W W W W W W W W W W W W W W W W W W W W W W W W W W W W W                                                     W W W W W W W W W W W W W W W W                                     ",
"                                      . . . . . . . . . . . . . . . . . . . . . . . . . . . . . . . . . . . . . . . . . . . . . . . . . . . . . . . . . . . . . .                         W W W W W W W W W W W W W W W W W W W W W W W W W W W W W W W W W W W W W W W W W W W W W W W W W W W W W W W W W W W W W       W W W W W W W W W W W W W W W W W W W W W W W W W W W W W W W W W W W W W W W                                                     W W W W W W W W W W W W W W W W                                     ",
"                                    . . . . . . . . . . . . . . . . . . . . . . . . . . . . . . . . . . . . . . . . . . . . . . . . . . . . . . . . . . . . .                               W W W W W W W W W W W W W W W W W W W W W W W W W W W W W W W W W W W W W W W W W W W W W W W W W W W W W W W W W W W W W     W W W W W W W W W W W W W W W W W W W W W W W W W W W W W W W W W W W W W W W                                                     W W W W W W W W W W W W W W W W                                     ",
"                                    . . . . . . . . . . . . . . . . . . . . . . . . . . . . . . . . . . . . . . . . . . . . . . . . . . . . . . . . . . . .                                   W W W W W W W W W W W W W W W W W W W W W W W W W W W W W W W W W W W W W W W W W W W W W W W W W W W W W W W W W W W W W   W W W W W W W W W W W W W W W W W W W W W W W W W W W W W W W W W W W W W W W                                                     W W W W W W W W W W W W W W W W                                     ",
"                                    . . . . . . . . . . . . . . . . . . . . . . . . . . . . . . . . . . . . . . . . . . . . . . . . . . . . . . . . . . .                                       W W W W W W W W W W W W W W W W W W W W W W W W W W W W W W W W W W W W W W W W W W W W W W W W W W W W W W W W W W W W W W W W W W W W W W W W W W W W W W W W W W W W W W W W W W W W W W W W W W W W                                                     W W W W W W W W W W W W W W W W                                     ",
"                                    . . . . . . . . . . . . . . . . . . . . . . . . . . . . . . . . . . . . . . . . . . . . . . . . . . . . . . . . . .                                           W W W W W W W W W W W W W W W W W W W W W W W W W W W W W W W W W W W W W W W W W W W W W W W W W W W W W W W W W W W W W W W W W W W W W W W W W W W W W W W W W W W W W W W W W W W W W W W W W W W                                                     W W W W W W W W W W W W W W W W                                     ",
"                                    . . . . . . . . . . . . . . . . . . . . . . . . . . . . . . . . . . . . . . . . . . . . . . . . . . . . . . . . .                                               W W W W W W W W W W W W W W W W W W W W W W W W W W W W W W W W W W W W W W W W W W W W W W W W W W W W W W W W W W W W W W W W W W W W W W W W W W W W W W W W W W W W W W W W W W W W W W W W W W                                                     W W W W W W W W W W W W W W W W                                     ",
"                                    . . . . . . . . . . . . . . . . . . . . . . . . . . . . . . . . . . . . . . . . . . . . . . . . . . . . . . .                                                     W W W W W W W W W W W W W W W W W W W W W W W W W W W W W W W W W W W W W W W W W W W W W W W W W W W W W W W W W W W W W W W W W W W W W W W W W W W W W W W W W W W W W W W W W W W W W W W W W                                                     W W W W W W W W W W W W W W W W                                     ",
"                                    . . . . . . . . . . . . . . . . . . . . . . . . . . . . . . . . . . . . . . . . . . . . . . . . . . . . . .                                                         W W W W W W W W W W W W W W W W W W W W W W W W W W W W W W W W W W W W W W W W W W W W W W W W W W W W W W W W W W W W W W W W W W W W W W W W W W W W W W W W W W W W W W W W W W W W W W W W                                                     W W W W W W W W W W W W W W W W                                     ",
"                                      . . . . . . . . . . . . . . . . . . . . . . . . . . . . . . . . . . . . . . . . . . . . . . . . . . . .                                                             W W W W W W W W W W W W W W W W W W W W W W W W W W W W W W W W W W W W W W W W W W W W W W W W W W W W W W W W W W W W W W W W W W W W W W W W W W W W W W W W W W W W W W W W W W W W W W W                                                     W W W W W W W W W W W W W W W W                                     ",
"                                      . . . . . . . . . . . . . . . . . . . . . . . . . . . . . . . . . . . . . . . . . . . . . . . . . . .                                                                 W W W W W W W W W W W W W W W W W W W W W W W W W W W W W W W W W W W W W W W W W W W W W W W W W W W W W W W W W W W W W W W W W W W W W W W W W W W W W W W W W W W W W W W W W W W W W W                                                     W W W W W W W W W W W W W W W W                                     ",
"                                        . . . . . . . . . . . . . . . . . . . . . . . . . . . . . . . . . . . . . . . . . . . . . . . . .                                                                     W W W W W W W W W W W W W W W W W W W W W W W W W W W W W W W W W W W W W W W W W W W W W W W W W W W W W W W W W W W W W W W W W W W W W W W W W W W W W W W W W W W W W W W W W W W W W                                                     W W W W W W W W W W W W W W W W                                     ",
"                                          . . . . . . . . . . . . . . . . . . . . . . . . . . . . . . . . . . . . . . . . . . . . . .                                                                           W W W W W W W W W W W W W W W W W W W W W W W W W W W W W W W W W W W W W W W W W W W W W W W W W W W W W W W W W W W W W W W W W W W W W W W W W W W W W W W W W W W W W W W W W W W W                                                     W W W W W W W W W W W W W W W W                                     ",
"                                            . . . . . . . . . . . . . . . . . . . . . . . . . . . . . . . . . . . . . . . . . . . .                                                                               W W W W W W W W W W W W W W W W W W W W W W W W W W W W W W W W W W W W W W W W W W W W W W W W W W W W W W W W W W W W W W W W W W W W W W W W W W W W W W W W W W                                                                       W W W W W W W W W W W W W W W W                                     ",
"                                              . . . . . . . . . . . . . . . . . . . . . . . . . . . . . . . . . . . . . . . . . .                                                                                   W W W W W W W W W W W W W W W W W W W W W W W W W W W W W W W W W W W W W W W W W W W W W W W W W W W W W W W W W W W W W W W W W W W W W W W W W W W W W W W W W                                                                       W W W W W W W W W W W W W W W W                                     ",
"                                                . . . . . . . . . . . . . . . . . . . . . . . . . . . . . . . . . . . . . . . .                                                                                       W W W W W W W W W W W W W W W W W W W W W W W W W W W W W W W W W W W W W W W W W W W W W W W W W W W W W W W W W W W W W W W W W W W W W W W W W W W W W W W W                                                                       W W W W W W W W W W W W W W W W                                     ",
"                                                  . . . . . . . . . . . . . . . . . . . . . . . . . . . . . . . . . . . . . .                                                                                           W W W W W W W W W W W W W W W W W W W W W W W W W W W W W W W W W W W W W W W W W W W W W W W W W W W W W W W W W W W W W W W W W W W W W W W W W W W W W W W                                                                       W W W W W W W W W W W W W W W W                                     ",
"                                                    . . . . . . . . . . . . . . . . . . . . . . . . . . . . . . . . . . . .                                                                                               W W W W W W W W W W W W W W W W W W W W W W W W W W W W W W W W W W W W W W W W W W W W W W W W W W W W W W W W W W W W W W W W W W W W W W W W W W W W W W                                                                       W W W W W W W W W W W W W W W W                                     ",
"                                                      . . . . . . . . . . . . . . . . . . . . . . . . . . . . . . . . .                                                                                                     W W W W W W W W W W W W W W W W W W W W W W W W W W W W W W W W W W W W W W W W W W W W W W W W W W W W W W W W W W W W W W W W W W W W W W W W W W W W W                                                                       W W W W W W W W W W W W W W W W                                     ",
"                                                        . . . . . . . . . . . . . . . . . . . . . . . . . . . . . . .                                                                                                         W W W W W W W W W W W W W W W W W W W W W W W W W W W W W W W W W W W W W W W W W W W W W W W W W W W W W W W W W W W W W W W W W W W W W W W W W W W W                                                                       W W W W W W W W W W W W W W W W                                     ",
"                                                          . . . . . . . . . . . . . . . . . . . . . . . . . . . . .                                                                                                             W W W W W W W W W W W W W W W W W W W W W W W W W W W W W W W W W W W W W W W W W W W W W W W W W W W W W W W W W W W W W W W W W W W W W W W W W W W           W W W W W W W W W W W W W W W W W W W W W W W W W W W W W W W W W W W W W W W W W W W W W W                                     ",
"                                                            . . . . . . . . . . . . . . . . . . . . . . . . . . .                                                                                                                 W W W W W W W W W W W W W W W W W W W W W W W W W W W W W W W W W W W W W W W W W W W W W W W W W W W W W W W W W W W W W W W W W W W W W W W W W W           W W W W W W W W W W W W W W W W W W W W W W W W W W W W W W W W W W W W W W W W W W W W W W                                     ",
"                                                              . . . . . . . . . . . . . . . . . . . . . . . . .                                                                                                                     W W W W W W W W W W W W W W W W W W W W W W W W W W W W W W W W W W W W W W W W W W W W W W W W W W W W W W W W W W W W W W W W W W W W W W W W W           W W W W W W W W W W W W W W W W W W W W W W W W W W W W W W W W W W W W W W W W W W W W W W                                     ",
"                                                                . . . . . . . . . . . . . . . . . . . . . . .                                                                                                                         W W W W W W W W W W W W W W W W W W W W W W W W W W W W W W W W W W W W W W W W W W W W W W W W W W W W W W W W W W W W W W W W W W W W W W W W           W W W W W W W W W W W W W W W W W W W W W W W W W W W W W W W W W W W W W W W W W W W W W W                                     ",
"                                                                  . . . . . . . . . . . . . . . . . . . . .                                                                                                                             W W W W W W W W W W W W W W W W W W W W W W W W W W W W W W W W W W W W W W W W W W W W W W W W W W W W W W W W W W W W W W W W W W W W W W W           W W W W W W W W W W W W W W W W W W W W W W W W W W W W W W W W W W W W W W W W W W W W W W                                     ",
"                                                                    . . . . . . . . . . . . . . . . . . .                                                                                                                                 W W W W W W W W W W W W W W W W W W W W W W W W W W W W W W W W W W W W W W W W W W W W W W W W W W W W W W W W W W W W W W W W W W W W W W           W W W W W W W W W W W W W W W W W W W W W W W W W W W W W W W W W W W W W W W W W W W W W W                                     ",
"                                                                      . . . . . . . . . . . . . . . .                                                                                                                                       W W W W W W W W W W W W W W W W W W W W W W W W W W W W W W W W W W W W W W W W W W W W W W W W W W W W W W W W W W W W W W W W W W W W W           W W W W W W W W W W W W W W W W W W W W W W W W W W W W W W W W W W W W W W W W W W W W W W                                     ",
"                                                                        . . . . . . . . . . . . . .                                                                                                                                           W W W W W W W W W W W W W W W W W W W W W W W W W W W W W W W W W W W W W W W W W W W W W W W W W W W W W W W W W W W W W W W W W W W W           W W W W W W W W W W W W W W W W W W W W W W W W W W W W W W W W W W W W W W W W W W W W W W                                     ",
"                                                                          . . . . . . . . . . . .                                                                                                                                               W W W W W W W W W W W W W W W W W W W W W W W W W W W W W W W W W W W W W W W W W W W W W W W W W W W W W W W W W W W W W W W W W W W           W W W W W W W W W W W W W W W W W W W W W W W W W W W W W W W W W W W W W W W W W W W W W W                                     ",
"                                                                            . . . . . . . . . .                                                                                                                                                   W W W W W W W W W W W W W W W W W W W W W W W W W W W W W W W W W W W W W W W W W W W W W W W W W W W W W W W W W W W W W W W W W W           W W W W W W W W W W W W W W W W W W W W W W W W W W W W W W W W W W W W W W W W W W W W W W                                     ",
"                                                                                . . . . . . .                                                                                                                                                       W W W W W W W W W W W W W W W W W W W W W W W W W W W W W W W W W W W W W W W W W W W W W W W W W W W W W W W W W W W W W W W W W           W W W W W W W W W W W W W W W W W W W W W W W W W W W W W W W W W W W W W W W W W W W W W W                                     ",
"                                                                                                                                                                                                                                                      W W W W W W W W W W W W W W W W W W W W W W W W W W W W W W W W W W W W W W W W W W W W W W W W W W W W W W W W W W W W W W W W           W W W W W W W W W W W W W W W W W W W W W W W W W W W W W W W W W W W W W W W W W W W W W W                                     ",
"                                                                                                                                                                                                                                                        W W W W W W W W W W W W W W W W W W W W W W W W W W W W W W W W W W W W W W W W W W W W W W W W W W W W W W W W W W W W W W W           W W W W W W W W W W W W W W W W W W W W W W W W W W W W W W W W W W W W W W W W W W W W W W                                     ",
"                                                                                                                                                                                                                                                          W W W W W W W W W W W W W W W W W W W W W W W W W W W W W W W W W W W W W W W W W W W W W W W W W W W W W W W W W W W W W W           W W W W W W W W W W W W W W W W W W W W W W W W W W W W W W W W W W W W W W W W W W W W W W                                     ",
"                                                                                                                                                                                                                                                            W W W W W W W W W W W W W W W W W W W W W W W W W W W W W W W W W W W W W W W W W W W W W W W W W W W W W W W W W W W W W           W W W W W W W W W W W W W W W W W W W W W W W W W W W W W W W W W W W W W W W W W W W W W W                                     ",
"                                                                                                                                                                                                                                                              W W W W W W W W W W W W W W W W W W W W W W W W W W W W W W W W W W W W W W W W W W W W W W W W W W W W W W W W W W W W           W W W W W W W W W W W W W W W W W W W W W W W W W W W W W W W W W W W W W W W W W W W W W W                                     ",
"                                                                                                                                                                                                                                                                W W W W W W W W W W W W W W W W W W W W W W W W W W W W W W W W W W W W W W W W W W W W W W W W W W W W W W W W W W W           W W W W W W W W W W W W W W W W W W W W W W W W W W W W W W W W W W W W W W W W W W W W W W                                     ",
"                                                                                                                                                                                                                                                                  W W W W W W W W W W W W W W W W W W W W W W W W W W W W W W W W W W W W W W W W W W W W W W W W W W W W W W W W W W           W W W W W W W W W W W W W W W W W W W W W W W W W W W W W W W W W W W W W W W W W W W W W W                                     ",
"                                                                                                                                                                                                                                                                    W W W W W W W W W W W W W W W W W W W W W W W W W W W W W W W W W W W W W W W W W W W W W W W W W W W W W W W W W           W W W W W W W W W W W W W W W W W W W W W W W W W W W W W W W W W W W W W W W W W W W W W W                                     ",
"                                                                                                                                                                                                                                                                      W W W W W W W W W W W W W W W W W W W W W W W W W W W W W W W W W W W W W W W W W W W W W W W W W W W W W W W W           W W W W W W W W W W W W W W W W W W W W W W W W W W W W W W W W W W W W W W W W W W W W W W                                     ",
"                                                                                                                                                                                                                                                                        W W W W W W W W W W W W W W W W W W W W W W W W W W W W W W W W W W W W W W W W W W W W W W W W W W W W W W W           W W W W W W W W W W W W W W W W W W W W W W W W W W W W W W W W W W W W W W W W W W W W W W                                     ",
"                                                                                                                                                                                                                                                                          W W W W W W W W W W W W W W W W W W W W W W W W W W W W W W W W W W W W W W W W W W W W W W W W W W W W W W           W W W W W W W W W W W W W W W W W W W W W W W W W W W W W W W W W W W W W W W W W W W W W W                                     ",
"                                                                                                                                                                                                                                                                            W W W W W W W W W W W W W W W W W W W W W W W W W W W W W W W W W W W W W W W W W W W W W W W W W W W W W           W W W W W W W W W W W W W W W W W W W W W W W W W W W W W W W W W W W W W W W W W W W W W W                                     ",
"                                                                                                                                                                                                                                                                              W W W W W W W W W W W W W W W W W W W W W W W W W W W W W W W W W W W W W W W W W W W W W W W W W W W W           W W W W W W W W W W W W W W W W W W W W W W W W W W W W W W W W W W W W W W W W W W W W W W                                     ",
"                                                                                                                                                                                                                                                                                W W W W W W W W W W W W W W W W W W W W W W W W W W W W W W W W W W W W W W W W W W W W W W W W W W W           W W W W W W W W W W W W W W W W W W W W W W W W W W W W W W W W W W W W W W W W W W W W W W                                     ",
"                                                                                                                                                                                                                                                                                  W W W W W W W W W W W W W W W W W W W W W W W W W W W W W W W W W W W W W W W W W W W W W W W W W W           W W W W W W W W W W W W W W W W W W W W W W W W W W W W W W W                                                                   ",
"                                                                                                                                                                                                                                                                                    W W W W W W W W W W W W W W W W W W W W W W W W W W W W W W W W W W W W W W W W W W W W W W W W W           W W W W W W W W W W W W W W W W W W W W W W W W W W W W W W W                                                                   ",
"                                                                                                                                                                                                                                                                                      W W W W W W W W W W W W W W W W W W W W W W W W W W W W W W W W W W W W W W W W W W W W W W W W           W W W W W W W W W W W W W W W W W W W W W W W W W W W W W W W                                                                   ",
"                                                                                                                                                                                                                                                                                        W W W W W W W W W W W W W W W W W W W W W W W W W W W W W W W W W W W W W W W W W W W W W W W           W W W W W W W W W W W W W W W W W W W W W W W W W W W W W W W                                                                   ",
"                                                                                                                                                                                                                                                                                          W W W W W W W W W W W W W W W W W W W W W W W W W W W W W W W W W W W W W W W W W W W W W W           W W W W W W W W W W W W W W W W W W W W W W W W W W W W W W W                                                                   ",
"                                                                                                                                                                                                                                                                                            W W W W W W W W W W W W W W W W W W W W W W W W W W W W W W W W W W W W W W W W W W W W W           W W W W W W W W W W W W W W W W W W W W W W W W W W W W W W W                                                                   ",
"                                                                                                                                                                                                                                                                                              W W W W W W W W W W W W W W W W W W W W W W W W W W W W W W W W W W W W W W W W W W W W           W W W W W W W W W W W W W W W W W W W W W W W W W W W W W W W                                                                   ",
"                                                                                                                                                                                                                                                                                                W W W W W W W W W W W W W W W W W W W W W W W W W W W W W W W W W W W W W W W W W W W           W W W W W W W W W W W W W W W W W W W W W W W W W W W W W W W                                                                   ",
"                                                                                                                                                                                                                                                                                                  W W W W W W W W W W W W W W W W W W W W W W W W W W W W W W W W W W W W W W W W W W           W W W W W W W W W W W W W W W W W W W W W W W W W W W W W W W                                                                   ",
"                                                                                                                                                                                                                                                                                                    W W W W W W W W W W W W W W W W W W W W W W W W W W W W W W W W W W W W W W W W W           W W W W W W W W W W W W W W W W W W W W W W W W W W W W W W W                                                                   ",
"                                                                                                                                                                                                                                                                                                      W W W W W W W W W W W W W W W W W W W W W W W W W W W W W W W W W W W W W W W W           W W W W W W W W W W W W W W W W W W W W W W W W W W W W W W W                                                                   ",
"                                                                                                                                                                                                                                                                                                        W W W W W W W W W W W W W W W W W W W W W W W W W W W W W W W W W W W W W W W           W W W W W W W W W W W W W W W W W W W W W W W W W W W W W W W                                                                   ",
"                                                                                                                                                                                                                                                                                                          W W W W W W W W W W W W W W W W W W W W W W W W W W W W W W W W W W W W W W           W W W W W W W W W W W W W W W W W W W W W W W W W W W W W W W                                                                   ",
"                                                                                                                                                                                                                                                                                                            W W W W W W W W W W W W W W W W W W W W W W W W W W W W W W W W W W W W W           W W W W W W W W W W W W W W W W W W W W W W W W W W W W W W W                                                                   ",
"                                                                                                                                                                                                                                                                                                              W W W W W W W W W W W W W W W W W W W W W W W W W W W W W W W W W W W W           W W W W W W W W W W W W W W W W W W W W W W W W W W W W W W W                                                                   ",
"                                                                                                                                                                                                                                                                                                                W W W W W W W W W W W W W W W W W W W W W W W W W W W W W W W W W W W           W W W W W W W W W W W W W W W W W W W W W W W W W W W W W W W                                                                   ",
"                                                                                                                                                                                                                                                                                                                  W W W W W W W W W W W W W W W W W W W W W W W W W W W W W W W W W W           W W W W W W W W W W W W W W W W W W W W W W W W W W W W W W W                                                                   ",
"                                                                                                                                                                                                                                                                                                                  W W W W W W W W W W W W W W W W W W W W W W W W W W W W W W W W W W           W W W W W W W W W W W W W W W W W W W W W W W W W W W W W W W                                                                   ",
"                                                                                                                                                                                                                                                                                                                    W W W W W W W W W W W W W W W W W W W W W W W W W W W W W W W W W           W W W W W W W W W W W W W W W W W W W W W W W W W W W W W W W                                                                   ",
"                                                                                                                                                                                                                                                                                                                      W W W W W W W W W W W W W W W W W W W W W W W W W W W W W W W W           W W W W W W W W W W W W W W W W W W W W W W W W W W W W W W W                                                                   ",
"                                                                                                                                                                                                                                                                                                                        W W W W W W W W W W W W W W W W W W W W W W W W W W W W W W W           W W W W W W W W W W W W W W W W W W W W W W W W W W W W W W W                                                                   ",
"                                                                                                                                                                                                                                                                                                                          W W W W W W W W W W W W W W W W W W W W W W W W W W W W W W           W W W W W W W W W W W W W W W W W W W W W W W W W W W W W W W                                                                   ",
"                                                                                                                                                                                                                                                                                                                            W W W W W W W W W W W W W W W W W W W W W W W W W W W W W           W W W W W W W W W W W W W W W W W W W W W W W W W W W W W W W                                                                   ",
"                                                                                                                                                                                                                                                                                                                                W W W W W W W W W W W W W W W W W W W W W W W W W W W           W W W W W W W W W W W W W W W W W W W W W W W W W W W W W W                                                                     ",
"                                                                                                                                                                                                                                                                                                                                        W W W W W W W W W W W W W W W W W W W W W W             W W W                                     W W W W W W W                                                                         ",
"                                                                                                                                                                                                                                                                                                                                                                                                                                                                                                                                ",
"                                                                                                                                                                                                                                                                                                                                                                                                                                                                                                                                ",
"                                                                                                                                                                                                                                                                                                                                                                                                                                                                                                                                ",
"                                                                                                                                                                                                                                                                                                                                                                                                                                                                                                                                ",
"                                                                                                                                                                                                                                                                                                                                                                                                                                                                                                                                ",
"                                                                                                                                                                                                                                                                                                                                                                                                                                                                                                                                ",
"                                                                                                                                                                                                                                                                                                                                                                                                                                                                                                                                ",
"                                                                                                                                                                                                                                                                                                                                                                                                                                                                                                                                ",
"                                                                                                                                                                                                                                                                                                                                                                                                                                                                                                                                ",
"                                                                                                                                                                                                                                                                                                                                                                                                                                                                                                                                ",
"                                                                                                                                                                                                                                                                                                                                                                                                                                                                                                                                ",
"                                                                                                                                                                                                                                                                                                                                                                                                                                                                                                                                ",
"                                                                                                                                                                                                                                                                                                                                                                                                                                                                                                                                ",
"                                                                                                                                                                                                                                                                                                                                                                                                                                                                                                                                ",
"                                                                                                                                                                                                                                                                                                                                                                                                                                                                                                                                ",
"                                                                                                                                                                                                                                                                                                                                                                                                                                                                                                                                ",
"                                                                                                                                                                                                                                                                                                                                                                                                                                                                                                                                ",
"                                                                                                                                                                                                                                                                                                                                                                                                                                                                                                                                ",
"                                                                                                                                                                                                                                                                                                                                                                                                                                                                                                                                ",
"                                                                                                                                                                                                                                                                                                                                                                                                                                                                                                                                ",
"                                                                                                                                                                                                                                                                                                                                                                                                                                                                                                                                ",
"                                                                                                                                                                                                                                                                                                                                                                                                                                                                                                                                ",
"                                                                                                                                                                                                                                                                                                                                                                                                                                                                                                                                ",
"                                                                                                                                                                                                                                                                                                                                                                                                                                                                                                                                ",
"                                                                                                                                                                                                                                                                                                                                                                                                                                                                                                                                ",
"                                                                                                                                                                                                                                                                                                                                                                                                                                                                                                                                ",
"                                                                                                                                                                                                                                                                                                                                                                                                                                                                                                                                ",
"                                                                                                                                                                                                                                                                                                                                                                                                                                                                                                                                ",
"                                                                                                                                                                                                                                                                                                                                                                                                                                                                                                                                ",
"                                                                                                                                                                                                                                                                                                                                                                                                                                                                                                                                "
};
